!!!SOCIAL_FUNCTION:	deer dance songs
!!!PDT:	1932
!!!OTL: No_89_The_Summer_Rains.krn
!!!REG: Southwest
!!!LANG: Non-Tone
!!!LING_GROUP: Yuman-Cochimi
**kern
*staff1
=1-
=
*clefF4
*k[f#c#g#d#]
*M3/4
8B\L
16G#\L
16G#\JJ
8.G#\L
16F#\Jk
8G#\
8r
=2||
*M2/4
8B\L
8B\J
8G#\L
8B\J
=3
8G#\L
16F#\L
16F#\JJ
8F#\L
8E\J
=4
4E\
4r
=5
8B\L
8G#\J
8G#\L
16G#\L
16G#\JJ
=6||
*M3/4
8F#\L
8G#\J
8F#\L
8E\J
8E\
8r
=7||
*M2/4
8G#\L
8F#\J
8E\L
8E\J
=8||
*M3/4
8.F#\L
16G#\Jk
8F#\L
8E\J
8E\
8r
=9||
*M2/4
8G#\L
8E\J
8E\L
8E\J
=10||
*M3/4
8.E\L
16E\Jk
8E\L
8E\J
4E\
=11:|!
2.r
=12
*M2/4
8G#\L
8G#\J
8G#\L
8G#\J
=13
8B\L
8B\J
4G#\
=14
12G#\L
12G#\
12F#\J
12F#\L
12F#\
12E\J
=15
8E\L
8E\J
8E\
8r
=16
2r
=17||
*M3/4
12G#\L
12G#\
12G#\J
8B\L
16G#\L
16G#\JJ
4G#\
=18||
*M2/4
8G#\L
8F#\J
8E\
16r
16E\
=19||
*M3/4
8E\L
8E\J
4E\
8C#/
8r
=20||
*M2/4
8B\L
8G#\J
8G#\L
16G#\L
16G#\JJ
=21||
*M3/4
8F#\L
8G#\J
8F#\L
8E\J
8E\
8r
=22||
*M2/4
8G#\L
8F#\J
8E\L
8E\J
=23||
*M3/4
8.F#\L
16G#\Jk
8F#\L
8E\J
8E\
8r
=24||
*M2/4
8G#\L
8E\J
8E\L
8E\J
=25||
*M3/4
8.E\L
16E\Jk
8E\L
8E\J
8E\
8r
==
*-
